X: 700
T: Ey Derde Derman
C: Râkım Elkutlu
O: Turkey
F: http://compmusic.upf.edu/node/140
N: karcigar--ilahi--duyek--ey_derde_derman--rakim_elkutlu
N: makam= karcigar
N: form= ilahi
N: usul= duyek = 8/4
M: 8/4
L: 1/16
K: C _2/4B _3/4e ^3/4f 
Q: 1/4=120
%%MIDI tuningsystem comma53
c4 d2 d4 d4 z2  | g2 ^f2 _7/8e2 ed cd c2 _1/4B2 z2  | \
w:   |   | 
g2 ^f2 _7/8e2 d2 c_1/4B f2 ed d2  | 
w:   | 
^f4 _7/8ed d4 z4 z2  | d4 d2 c'3_b a2 g2 z2  | \
w:   |   | 
a_b a2 g2 ^f_7/8e ed d4 z2  | 
w:   | 
d6 d2 c_1/4B g2 ^f_7/8e z2  | d2 c2 _1/4B2 AB AB c4 z2  | \
w:   |   | 
A4 _1/4B2 c2 d2 B2 c2 B2  | 
w:   | 
^f2 _7/8e2 d2 c_1/4B BA A4 z2  | ^f4 _7/8ed c3_1/4B B3A A2  | \
w:   |   | 
c4 _1/4BA A4 g4 z2  | 
w:   | 
g4 a_b ag g^f g4 f2  | a2 g2 =f2 f=e e^d e4 z2  | \
w:   |   | 
a4 g^f f3_7/8e e3d z2  | 
w:   | 
g4 ^f2 _7/8e3d gf ed c2  | d4 d2 c'2 _b2 a2 g2 z2  | \
w:   |   | 
a_b a2 g2 ^f_7/8e ed d4 z2  | 
w:   | 
d4 c_1/4B d2 c2 ^f2 _7/8ed z2  | d2 c2 _1/4B2 A2 B2 c2 d2 z2  | \
w:   |   | 
A4 _1/4B2 c2 d2 B2 c2 d2  | 
w:   | 
^f2 _7/8e2 d2 c_1/4B BA z2 e4  | _7/8ed ed c2 ^fe ed d2 c2 _1/4B2  | 
w:   |   | 
A2 c2 _1/4BA A4 |
w:   | 


